material/.icons/material/white-balance-iridescent.svg

<svg xmlns="http://www.w3.org/2000/svg" viewBox="0 0 24 24"><path d="M4.96 19.95l1.8-1.8-1.42-1.41-1.79 1.79m0-14.07l1.79 1.8 1.42-1.42-1.8-1.79m15.49 15.48l-1.79-1.79-1.42 1.41 1.8 1.8M13 22.45V19.5h-2v2.95h2m6.04-19.4l-1.8 1.79 1.42 1.42 1.79-1.8M11 3.5h2V.55h-2M5 14.5h14v-6H5v6z"/></svg>

<?xml version="1.0" encoding="UTF-8"?><!DOCTYPE svg PUBLIC "-//W3C//DTD SVG 1.1//EN" "http://www.w3.org/Graphics/SVG/1.1/DTD/svg11.dtd"><svg xmlns="http://www.w3.org/2000/svg" xmlns:xlink="http://www.w3.org/1999/xlink" version="1.1" id="mdi-white-balance-iridescent" width="24" height="24" viewBox="0 0 24 24"><path d="M4.96,19.95L6.76,18.15L5.34,16.74L3.55,18.53M3.55,4.46L5.34,6.26L6.76,4.84L4.96,3.05M20.45,18.53L18.66,16.74L17.24,18.15L19.04,19.95M13,22.45V19.5H11V22.45C11.32,22.45 13,22.45 13,22.45M19.04,3.05L17.24,4.84L18.66,6.26L20.45,4.46M11,3.5H13V0.55H11M5,14.5H19V8.5H5V14.5Z" /></svg>
